icons/assets/dark/react.svg

<svg width="48" height="48" viewBox="0 0 48 48" fill="none" xmlns="http://www.w3.org/2000/svg">
<circle cx="24" cy="24" r="3" fill="#62646A"/>
<path fill-rule="evenodd" clip-rule="evenodd" d="M14.6217 18.5854C14.7829 19.1529 14.966 19.7335 15.1709 20.3245C15.3655 19.9661 15.5662 19.6078 15.7728 19.25C15.9794 18.8922 16.1893 18.5392 16.4024 18.1915C15.7881 18.3096 15.1938 18.4413 14.6217 18.5854ZM13.9647 15.6573C15.4381 15.2897 17.0243 15.0022 18.6917 14.8057C19.6955 13.46 20.7376 12.23 21.7927 11.1378C21.6194 10.9973 21.4468 10.8619 21.2753 10.7318C19.8835 9.67668 18.615 9.01707 17.5518 8.72961C16.4964 8.44425 15.759 8.55067 15.25 8.84455C14.741 9.13843 14.2801 9.72383 13.9996 10.7805C13.7169 11.845 13.6539 13.2733 13.8718 15.0062C13.8986 15.2198 13.9296 15.4369 13.9647 15.6573ZM20.3361 17.6538C19.6591 18.6252 19.0003 19.6597 18.3708 20.75C17.7413 21.8403 17.1749 22.928 16.6721 24C17.1749 25.072 17.7413 26.1597 18.3708 27.25C19.0003 28.3403 19.6591 29.3747 20.336 30.3461C21.5158 30.4467 22.741 30.5 24 30.5C25.259 30.5 26.4842 30.4467 27.664 30.3461C28.341 29.3747 28.9997 28.3403 29.6292 27.25C30.2587 26.1597 30.8251 25.072 31.3279 24C30.8251 22.928 30.2587 21.8403 29.6292 20.75C28.9997 19.6597 28.3409 18.6252 27.664 17.6538C26.4842 17.5532 25.259 17.5 24 17.5C22.741 17.5 21.5158 17.5532 20.3361 17.6538ZM25.2315 14.516C24.8238 14.5054 24.4132 14.5 24 14.5C23.5868 14.5 23.1762 14.5054 22.7685 14.516C23.1779 14.0431 23.5891 13.5942 24 13.1709C24.4109 13.5942 24.8221 14.0431 25.2315 14.516ZM31.5976 18.1915C31.8107 18.5392 32.0206 18.8921 32.2272 19.25C32.4338 19.6078 32.6345 19.9661 32.8291 20.3245C33.034 19.7335 33.2171 19.1529 33.3783 18.5854C32.8062 18.4413 32.2119 18.3096 31.5976 18.1915ZM34.0353 15.6573C32.5619 15.2897 30.9757 15.0022 29.3084 14.8057C28.3045 13.46 27.2624 12.23 26.2073 11.1378C26.3806 10.9973 26.5532 10.8619 26.7247 10.7318C28.1165 9.67669 29.385 9.01708 30.4482 8.72962C31.5036 8.44426 32.241 8.55068 32.75 8.84456C33.259 9.13844 33.7199 9.72384 34.0004 10.7805C34.2831 11.845 34.3461 13.2733 34.1282 15.0062C34.1014 15.2198 34.0704 15.4369 34.0353 15.6573ZM36.2426 19.4805C35.8243 20.9404 35.2802 22.4578 34.6167 24C35.2802 25.5422 35.8243 27.0596 36.2426 28.5195C36.451 28.4397 36.6545 28.3579 36.8529 28.2744C38.4626 27.5966 39.6681 26.8279 40.4486 26.0509C41.2235 25.2796 41.5 24.5878 41.5 24C41.5 23.4122 41.2235 22.7204 40.4486 21.9491C39.6681 21.1721 38.4626 20.4033 36.8529 19.7256C36.6545 19.642 36.451 19.5603 36.2426 19.4805ZM36.9298 31.465C37.3036 31.329 37.6663 31.187 38.0171 31.0393C39.8458 30.2693 41.4228 29.3142 42.5651 28.177C43.7132 27.0341 44.5 25.6214 44.5 24C44.5 22.3786 43.7132 20.9659 42.5651 19.823C41.4228 18.6858 39.8458 17.7306 38.0171 16.9607C37.6663 16.813 37.3036 16.671 36.9298 16.535C36.9989 16.1432 37.0573 15.7582 37.1048 15.3805C37.3523 13.4118 37.3136 11.5685 36.9 10.0106C36.4842 8.44492 35.6542 7.05717 34.25 6.24648C32.8458 5.43579 31.229 5.41079 29.6652 5.83361C28.1091 6.25432 26.4935 7.1425 24.9123 8.34117C24.609 8.57114 24.3047 8.81424 24 9.06995C23.6953 8.81423 23.391 8.57113 23.0877 8.34116C21.5065 7.14249 19.8909 6.25431 18.3348 5.8336C16.771 5.41078 15.1542 5.43579 13.75 6.24647C12.3458 7.05716 11.5158 8.44491 11.1 10.0106C10.6864 11.5685 10.6477 13.4118 10.8952 15.3805C10.9427 15.7582 11.0011 16.1432 11.0702 16.535C10.6964 16.671 10.3337 16.813 9.98289 16.9607C8.15424 17.7306 6.57722 18.6858 5.43486 19.823C4.28678 20.9659 3.5 22.3786 3.5 24C3.5 25.6214 4.28678 27.0341 5.43486 28.177C6.57722 29.3142 8.15424 30.2693 9.98289 31.0393C10.3337 31.187 10.6964 31.329 11.0702 31.465C11.0011 31.8567 10.9427 32.2418 10.8952 32.6195C10.6477 34.5882 10.6864 36.4315 11.1 37.9894C11.5158 39.5551 12.3458 40.9428 13.75 41.7535C15.1542 42.5642 16.771 42.5892 18.3348 42.1664C19.8909 41.7457 21.5065 40.8575 23.0877 39.6588C23.391 39.4289 23.6953 39.1858 24 38.93C24.3047 39.1858 24.609 39.4289 24.9123 39.6588C26.4935 40.8575 28.1091 41.7457 29.6652 42.1664C31.229 42.5892 32.8458 42.5642 34.25 41.7535C35.6542 40.9428 36.4842 39.5551 36.9 37.9894C37.3136 36.4315 37.3523 34.5881 37.1048 32.6195C37.0573 32.2418 36.9989 31.8567 36.9298 31.465ZM33.3783 29.4145C33.2171 28.847 33.034 28.2665 32.8291 27.6755C32.6345 28.0339 32.4338 28.3922 32.2272 28.75C32.0206 29.1078 31.8107 29.4608 31.5976 29.8085C32.2119 29.6904 32.8062 29.5587 33.3783 29.4145ZM29.3084 33.1943C30.9757 32.9978 32.5619 32.7103 34.0353 32.3427C34.0704 32.563 34.1014 32.7801 34.1282 32.9938C34.3461 34.7267 34.2831 36.155 34.0004 37.2195C33.7199 38.2762 33.259 38.8616 32.75 39.1554C32.241 39.4493 31.5036 39.5557 30.4482 39.2704C29.385 38.9829 28.1165 38.3233 26.7247 37.2682C26.5532 37.1381 26.3806 37.0027 26.2073 36.8621C27.2624 35.77 28.3045 34.54 29.3084 33.1943ZM25.2315 33.484C24.8238 33.4946 24.4132 33.5 24 33.5C23.5868 33.5 23.1762 33.4946 22.7685 33.484C23.1779 33.9569 23.5891 34.4058 24 34.8291C24.4109 34.4058 24.8221 33.9569 25.2315 33.484ZM16.4024 29.8085C16.1893 29.4608 15.9794 29.1078 15.7728 28.75C15.5662 28.3922 15.3655 28.0339 15.1709 27.6755C14.966 28.2665 14.7829 28.847 14.6217 29.4145C15.1938 29.5587 15.7881 29.6904 16.4024 29.8085ZM13.9647 32.3427C15.4381 32.7103 17.0243 32.9978 18.6916 33.1943C19.6955 34.54 20.7376 35.77 21.7927 36.8621C21.6194 37.0027 21.4468 37.1381 21.2753 37.2682C19.8835 38.3233 18.615 38.9829 17.5518 39.2704C16.4964 39.5557 15.759 39.4493 15.25 39.1554C14.741 38.8616 14.2801 38.2762 13.9996 37.2195C13.7169 36.155 13.6539 34.7267 13.8718 32.9938C13.8986 32.7802 13.9296 32.5631 13.9647 32.3427ZM11.7574 28.5195C12.1757 27.0596 12.7198 25.5422 13.3833 24C12.7198 22.4578 12.1757 20.9404 11.7574 19.4805C11.549 19.5603 11.3455 19.642 11.1471 19.7256C9.53738 20.4033 8.33191 21.1721 7.55137 21.9491C6.77655 22.7204 6.5 23.4122 6.5 24C6.5 24.5878 6.77655 25.2796 7.55137 26.0509C8.33191 26.8279 9.53738 27.5966 11.1471 28.2744C11.3455 28.3579 11.549 28.4397 11.7574 28.5195Z" fill="#62646A"/>
</svg>

<svg width="48" height="48" fill="none" xmlns="http://www.w3.org/2000/svg"><circle cx="24" cy="24" r="3" fill="#62646A"/><path fill-rule="evenodd" clip-rule="evenodd" d="M14.622 18.585c.16.568.344 1.148.549 1.74a46.98 46.98 0 011.231-2.133c-.614.118-1.208.25-1.78.393zm-.657-2.928a37.936 37.936 0 014.727-.851 37.925 37.925 0 013.1-3.668c-.173-.14-.345-.276-.517-.406-1.391-1.055-2.66-1.715-3.723-2.002-1.056-.286-1.793-.18-2.302.115-.509.293-.97.879-1.25 1.935-.283 1.065-.346 2.493-.128 4.226.027.214.058.43.093.651zm6.371 1.997a43.188 43.188 0 00-1.965 3.096A43.191 43.191 0 0016.672 24a43.191 43.191 0 001.699 3.25 43.22 43.22 0 001.965 3.096c1.18.1 2.405.154 3.664.154 1.259 0 2.484-.053 3.664-.154a43.186 43.186 0 001.965-3.096A43.191 43.191 0 0031.328 24a43.191 43.191 0 00-1.699-3.25 43.223 43.223 0 00-1.965-3.096c-1.18-.1-2.405-.154-3.664-.154-1.259 0-2.484.053-3.664.154zm4.896-3.138a47.386 47.386 0 00-2.463 0c.409-.473.82-.922 1.231-1.345.41.423.822.872 1.232 1.345zm6.366 3.676a46.813 46.813 0 011.231 2.133c.205-.591.388-1.172.55-1.74a32.135 32.135 0 00-1.781-.393zm2.437-2.535a37.937 37.937 0 00-4.727-.851 37.94 37.94 0 00-3.1-3.668c.173-.14.345-.276.517-.406 1.391-1.055 2.66-1.715 3.723-2.002 1.056-.286 1.793-.18 2.302.115.509.293.97.879 1.25 1.935.283 1.065.346 2.493.128 4.226-.027.214-.058.43-.093.651zm2.208 3.823A37.92 37.92 0 0134.617 24a37.92 37.92 0 011.626 4.52c.208-.08.411-.162.61-.246 1.61-.677 2.815-1.446 3.596-2.223.775-.771 1.051-1.463 1.051-2.051 0-.588-.276-1.28-1.051-2.05-.78-.778-1.986-1.547-3.596-2.224a19.878 19.878 0 00-.61-.245zm.687 11.985c.374-.136.736-.278 1.087-.426 1.829-.77 3.406-1.725 4.548-2.862C43.713 27.034 44.5 25.621 44.5 24c0-1.621-.787-3.034-1.935-4.177-1.142-1.137-2.72-2.092-4.548-2.862-.35-.148-.713-.29-1.087-.426.069-.392.127-.777.175-1.155.247-1.968.209-3.812-.205-5.37-.416-1.565-1.246-2.953-2.65-3.764-1.404-.81-3.021-.835-4.585-.412-1.556.42-3.171 1.309-4.753 2.507-.303.23-.607.473-.912.729a23.616 23.616 0 00-.912-.729c-1.582-1.199-3.197-2.087-4.753-2.507-1.564-.423-3.18-.398-4.585.412-1.404.811-2.234 2.199-2.65 3.765-.414 1.558-.452 3.4-.205 5.37.048.377.106.762.175 1.154-.374.136-.736.278-1.087.426-1.829.77-3.406 1.725-4.548 2.862C4.287 20.966 3.5 22.379 3.5 24c0 1.621.787 3.034 1.935 4.177 1.142 1.137 2.72 2.092 4.548 2.862.35.148.713.29 1.087.426-.069.392-.127.777-.175 1.155-.247 1.968-.209 3.812.205 5.37.416 1.565 1.246 2.953 2.65 3.764 1.404.81 3.021.835 4.585.412 1.556-.42 3.171-1.308 4.753-2.507.303-.23.607-.473.912-.729.305.256.609.499.912.729 1.582 1.199 3.197 2.087 4.753 2.507 1.564.423 3.18.398 4.585-.412 1.404-.811 2.234-2.199 2.65-3.765.414-1.557.452-3.4.205-5.37a23.601 23.601 0 00-.175-1.154zm-3.552-2.05a32.045 32.045 0 00-.549-1.74 46.98 46.98 0 01-1.231 2.133c.614-.118 1.208-.25 1.78-.393zm-4.07 3.78a37.937 37.937 0 004.727-.852c.035.22.066.437.093.65.218 1.734.155 3.162-.128 4.226-.28 1.057-.741 1.643-1.25 1.936-.509.294-1.246.4-2.302.115-1.063-.287-2.332-.947-3.723-2.002-.172-.13-.344-.265-.518-.406a37.926 37.926 0 003.101-3.668zm-4.076.289a47.386 47.386 0 01-2.463 0c.409.473.82.922 1.231 1.345.41-.423.822-.872 1.232-1.345zm-8.83-3.676a47.036 47.036 0 01-1.231-2.133 32.045 32.045 0 00-.55 1.74c.573.144 1.167.275 1.781.393zm-2.437 2.535c1.473.367 3.06.655 4.727.851a37.926 37.926 0 003.1 3.668c-.173.14-.345.276-.517.406-1.391 1.055-2.66 1.715-3.723 2.002-1.056.286-1.793.18-2.302-.115-.509-.293-.97-.879-1.25-1.936-.283-1.064-.346-2.492-.128-4.225.027-.214.058-.43.093-.651zm-2.208-3.824A37.92 37.92 0 0113.383 24a37.92 37.92 0 01-1.626-4.52c-.208.08-.412.162-.61.246-1.61.677-2.815 1.446-3.596 2.223C6.777 22.72 6.5 23.412 6.5 24c0 .588.277 1.28 1.051 2.05.78.778 1.986 1.547 3.596 2.224.198.084.402.166.61.245z" fill="#62646A"/></svg>
